static/logos/anima-wordmark-color.svg

<svg width="100" height="30" viewBox="0 0 100 30" fill="none" xmlns="http://www.w3.org/2000/svg">
<g clip-path="url(#clip0_1_3525)">
<path d="M0.189215 -0.00046348H25.5186C25.5505 -0.000982801 25.5819 0.00666121 25.6099 0.0217396C25.638 0.0368179 25.6616 0.0588271 25.6787 0.0856679C25.6959 0.112509 25.7058 0.143286 25.7076 0.175061C25.7094 0.206838 25.7032 0.238553 25.6892 0.267183C23.5056 4.67669 20.2141 8.44345 16.1373 11.1986C9.55196 15.6417 2.92059 16.1006 0.191176 16.125C0.166258 16.1255 0.141486 16.1211 0.118313 16.112C0.0951391 16.1028 0.0740299 16.089 0.0562241 16.0716C0.0384185 16.0542 0.0242747 16.0334 0.01462 16.0103C0.0049653 15.9874 -5.46178e-06 15.9627 4.5035e-09 15.9377V0.186792C-1.35276e-06 0.162036 0.00490619 0.137524 0.0144391 0.114676C0.0239719 0.0918285 0.0379411 0.0710984 0.0555375 0.0536843C0.073134 0.0362702 0.0940085 0.0225189 0.116954 0.0132245C0.1399 0.00393024 0.16446 -0.00072271 0.189215 -0.00046348Z" fill="#FF6250"/>
<path d="M5.65588 29.4109C8.77954 29.4109 11.3118 26.8786 11.3118 23.755C11.3118 20.6314 8.77954 18.0991 5.65588 18.0991C2.53222 18.0991 0 20.6314 0 23.755C0 26.8786 2.53222 29.4109 5.65588 29.4109Z" fill="#FFDF90"/>
<path d="M17.2206 29.076C15.6206 28.4652 14.7696 26.7045 15.3118 25.1457L19.5813 12.9613C20.1284 11.4025 21.8686 10.6348 23.4686 11.2456C25.0686 11.8574 25.9196 13.6172 25.3775 15.177L21.1078 27.3613C20.5607 28.9202 18.8206 29.6887 17.2206 29.076Z" fill="#3366FF"/>
<path d="M39.9885 21.5553C38.9787 21.5553 38.0927 21.318 37.3306 20.8435C36.5556 20.3523 35.9419 19.6442 35.5659 18.8073C35.1503 17.9249 34.9434 16.8882 34.9453 15.6974C34.9473 14.5065 35.1584 13.4624 35.5787 12.565C35.9613 11.7141 36.5773 10.989 37.3552 10.4739C38.14 9.96904 39.0573 9.70901 39.9905 9.72681C41.0003 9.72681 41.864 9.97157 42.5817 10.4611C43.2993 10.9507 43.7849 11.6487 44.0385 12.5553L43.7679 12.7356V9.99837H46.0297V21.4013H43.7689V18.618L44.0394 18.7317C43.7826 19.6363 43.2966 20.3334 42.5817 20.8229C41.8666 21.3124 41.0023 21.5565 39.9885 21.5553ZM40.5306 19.7455C41.5574 19.7455 42.3529 19.3909 42.917 18.6817C43.481 17.9725 43.7633 16.9621 43.764 15.6503C43.764 14.3385 43.4817 13.3281 42.917 12.619C42.3523 11.9098 41.5567 11.5552 40.5306 11.5552C39.4907 11.5552 38.68 11.9205 38.0983 12.6513C37.5166 13.3821 37.2264 14.3951 37.2277 15.6905C37.2277 16.9885 37.5179 17.9882 38.0983 18.6895C38.6787 19.3909 39.4894 19.7428 40.5306 19.7455Z" fill="black"/>
<path d="M49.3522 21.396V13.2058C49.3522 12.6773 49.3425 12.142 49.318 11.599C49.2934 11.0558 49.2454 10.5205 49.1719 9.99308H51.3434L51.5474 12.3009L51.3209 12.4362C51.6522 11.546 52.1836 10.8715 52.9151 10.4127C53.6722 9.94658 54.5476 9.70833 55.4366 9.72642C58.166 9.72642 59.5311 11.2575 59.5316 14.3196V21.401H57.2463V14.4068C57.2463 13.4264 57.0503 12.71 56.6581 12.2578C56.266 11.8055 55.6627 11.579 54.8483 11.5784C53.868 11.5784 53.0879 11.88 52.5081 12.4832C51.9285 13.0865 51.6382 13.8937 51.6375 14.9049V21.398H49.3522V21.396Z" fill="black"/>
<path d="M62.6094 5.0166H65.2563V7.41464H62.6094V5.0166ZM62.7671 21.397V9.99405H65.0524V21.397H62.7671Z" fill="black"/>
<path d="M68.3757 21.3968V13.2067C68.3757 12.6782 68.3658 12.1429 68.3433 11.5998C68.3208 11.0623 68.2714 10.5264 68.1953 9.99389H70.3668L70.5707 12.3017L70.3443 12.392C70.6292 11.5468 71.1044 10.8906 71.7698 10.4233C72.4351 9.95598 73.227 9.72232 74.1452 9.72232C75.2308 9.72232 76.0805 9.98964 76.6943 10.5243C77.308 11.0589 77.7025 11.8834 77.8775 12.9979L77.3354 12.6135C77.5679 11.7573 78.0923 11.0093 78.8178 10.4988C79.5505 9.97592 80.4135 9.71448 81.407 9.71448C82.6744 9.71448 83.6246 10.0949 84.258 10.8557C84.8913 11.6164 85.208 12.7661 85.208 14.3047V21.387H82.9237V14.4037C82.9237 13.4233 82.7521 12.7067 82.4148 12.2537C82.0775 11.8008 81.5325 11.5753 80.7737 11.5753C79.8998 11.5753 79.2103 11.8769 78.7051 12.4802C78.1998 13.0834 77.9468 13.9056 77.9463 14.9468V21.3949H75.661V14.4037C75.661 13.4233 75.4874 12.7067 75.1404 12.2537C74.7933 11.8008 74.2505 11.5746 73.5119 11.5753C72.6211 11.5753 71.9237 11.8769 71.4198 12.4802C70.9158 13.0834 70.6628 13.9056 70.661 14.9468V21.3949H68.3757V21.3968Z" fill="black"/>
<path d="M92.8811 21.5548C91.8712 21.5548 90.9857 21.3175 90.2242 20.843C89.4491 20.3518 88.8355 19.6438 88.4595 18.8068C88.0438 17.9244 87.8359 16.8878 87.8359 15.6969C87.8359 14.5061 88.0471 13.4619 88.4693 12.5645C88.8525 11.7143 89.4679 10.9895 90.2448 10.4734C91.0299 9.9684 91.9477 9.70835 92.8811 9.72634C93.8915 9.72634 94.7549 9.97111 95.4712 10.4607C96.1876 10.9502 96.6736 11.6482 96.9291 12.5548L96.6576 12.7351V9.99793H98.9203V21.4009H96.6576V18.6175L96.9291 18.7312C96.6723 19.6358 96.1863 20.3329 95.4712 20.8224C94.7563 21.3119 93.8929 21.5561 92.8811 21.5548ZM93.4223 19.745C94.449 19.745 95.2451 19.3904 95.8105 18.6812C96.3758 17.9721 96.6582 16.9616 96.6576 15.6498C96.6576 14.3381 96.3752 13.3277 95.8105 12.6185C95.2458 11.9094 94.4497 11.5548 93.4223 11.5548C92.3824 11.5548 91.5712 11.9202 90.9889 12.6509C90.4065 13.3816 90.1166 14.3946 90.1193 15.6901C90.1193 16.9881 90.4092 17.9878 90.9889 18.6891C91.5686 19.3904 92.3798 19.7424 93.4223 19.745Z" fill="black"/>
</g>
<defs>
<clipPath id="clip0_1_3525">
<rect width="100" height="29.4118" fill="white"/>
</clipPath>
</defs>
</svg>

<svg xmlns="http://www.w3.org/2000/svg" width="213.333" height="64" fill="none" viewBox="0 0 100 30"><g clip-path="url(#a)"><path fill="#FF6250" d="M.19 0h25.329a.186.186 0 0 1 .17.267A28.41 28.41 0 0 1 16.137 11.2C9.552 15.642 2.921 16.1.191 16.125a.189.189 0 0 1-.135-.053.186.186 0 0 1-.056-.134V.187A.187.187 0 0 1 .19 0Z"/><path fill="#FFDF90" d="M5.656 29.41a5.656 5.656 0 1 0 0-11.311 5.656 5.656 0 0 0 0 11.312Z"/><path fill="#36F" d="M17.22 29.076c-1.6-.61-2.45-2.372-1.908-3.93l4.27-12.185c.546-1.559 2.287-2.326 3.887-1.715s2.45 2.371 1.909 3.931l-4.27 12.184c-.547 1.56-2.287 2.328-3.887 1.715Z"/><path fill="#000" d="M39.989 21.555c-1.01 0-1.896-.237-2.658-.712a4.683 4.683 0 0 1-1.765-2.036c-.416-.882-.623-1.919-.62-3.11.001-1.19.212-2.235.633-3.132a4.936 4.936 0 0 1 1.776-2.091 4.705 4.705 0 0 1 2.636-.747c1.01 0 1.873.245 2.59.734.718.49 1.204 1.188 1.457 2.094l-.27.18V9.999h2.262v11.403h-2.261v-2.783l.27.114c-.256.904-.742 1.601-1.457 2.09-.715.49-1.58.735-2.593.733Zm.542-1.81c1.026 0 1.822-.354 2.386-1.063.564-.71.846-1.72.847-3.032 0-1.312-.282-2.322-.847-3.031-.565-.71-1.36-1.064-2.386-1.064-1.04 0-1.851.366-2.433 1.096-.581.731-.872 1.744-.87 3.04 0 1.297.29 2.297.87 2.998.58.702 1.391 1.054 2.433 1.056ZM49.352 21.396v-8.19c0-.529-.01-1.064-.034-1.607a17.3 17.3 0 0 0-.146-1.606h2.171l.204 2.308-.226.135c.331-.89.863-1.565 1.594-2.023a4.63 4.63 0 0 1 2.522-.687c2.729 0 4.094 1.531 4.095 4.594V21.4h-2.286v-6.994c0-.98-.196-1.697-.588-2.15-.392-.451-.995-.678-1.81-.679-.98 0-1.76.302-2.34.905-.58.603-.87 1.41-.87 2.422v6.493h-2.286v-.002ZM62.61 5.017h2.646v2.398H62.61V5.017Zm.157 16.38V9.994h2.285v11.403h-2.285ZM68.376 21.397v-8.19c0-.529-.01-1.064-.033-1.607a16.115 16.115 0 0 0-.148-1.606h2.172l.204 2.308-.227.09c.285-.845.76-1.501 1.426-1.969.665-.467 1.457-.7 2.375-.7 1.086 0 1.936.267 2.55.801.613.535 1.008 1.36 1.183 2.474l-.543-.384a3.805 3.805 0 0 1 1.483-2.115c.733-.523 1.596-.785 2.589-.785 1.267 0 2.218.38 2.851 1.142.633.76.95 1.91.95 3.449v7.082h-2.284v-6.983c0-.98-.172-1.697-.51-2.15-.337-.453-.882-.679-1.64-.679-.874 0-1.564.302-2.069.905-.505.603-.758 1.426-.759 2.467v6.448h-2.285v-6.991c0-.98-.174-1.697-.52-2.15-.348-.453-.89-.68-1.63-.679-.89 0-1.587.302-2.091.905-.504.603-.757 1.426-.759 2.467v6.448h-2.285v.002ZM92.881 21.555c-1.01 0-1.895-.238-2.657-.712a4.682 4.682 0 0 1-1.764-2.036c-.416-.883-.624-1.92-.624-3.11s.211-2.235.633-3.132a4.955 4.955 0 0 1 1.776-2.092 4.706 4.706 0 0 1 2.636-.747c1.01 0 1.874.245 2.59.735.717.49 1.203 1.187 1.458 2.094l-.271.18V9.998h2.262V21.4h-2.262v-2.784l.271.114c-.257.905-.743 1.602-1.458 2.091-.715.49-1.578.734-2.59.733Zm.541-1.81c1.027 0 1.823-.355 2.389-1.064.565-.709.847-1.72.847-3.031 0-1.312-.283-2.322-.847-3.032-.565-.709-1.361-1.063-2.389-1.063-1.04 0-1.85.365-2.433 1.096-.583.73-.872 1.744-.87 3.04 0 1.297.29 2.297.87 2.998.58.701 1.39 1.053 2.433 1.056Z"/></g><defs><clipPath id="a"><path fill="#fff" d="M0 0h100v29.412H0z"/></clipPath></defs></svg>
